X: 31
T:Lumps of Plum Pudding
M:6/8
L:1/8
A:Bampton
P:A(AB)2A2
K:G
P:A
d|B>AG g>fg|d>ed G2 A|B>AG G>AB|A>FD D3 |
B>AG g>fg|d>ef g>dB|c>AF G>Bc|d2 B G2 |]
P:B
d|B>dg B>dg|d>cd G2 B|A>ce A>ce|B>dB G2d|
B>dg B>dg|d>ef g>dB|c>AF G>Bc|d2 B G2 |]
</abc>



